X:1
T:En månskensnatt på slottsbacken
T:En månskensnatt på slottsbacken
T:Gunnar Wennerberg 
T:Gluntarna
T:www.cafe-puccini.dk - 2015-07-10
T:www.cafe-puccini.dk - 2015-07-10
C:Gunnar Wennerberg
Z:www.cafe-puccini.dk - 2015-07-10
%%score [ 1 2 ] { ( 3 4 ) | ( 5 6 ) }
L:1/8
Q:1/4=90
M:2/4
K:G
V:1 treble-8 nm="Magistern" snm="M."
V:2 bass nm="Glunten" snm="G."
V:3 treble nm="Piano"
V:4 treble 
V:5 bass 
V:6 bass 
V:1
"^Moderato" G2 A G | F2 E F | G2 ^G2 | A2 A z | c2 B A | =G3/2 F/ G A | B2 A2 | G2 z2 | z4 | z4 | %10
w: 1.~Her- re min|Gud, hvad den|må- nen|ly- ser,|Se hvil- ken|glans ut- öf- ver|land och|stad!|||
w: 2.~Högt opp i|Slot- tet var-|en- da|ru- ta|blix- trar, som|vo- re den en|ä- del-|sten.|||
 z4 | z4 | z4 | z4 | z4 | z4 | !>!d2 e d | c2 B c | d2 ^d2 | e2 =d2 | cB A G | F2 B"^ritard." A | %22
w: ||||||Der flam- mar|Si- ri- us,|der O-|ri- on,|Der _ plas- kar|Sva- nen i|
w: ||||||Och i et|fön- ster Ce-|ci- lia|Wa- sa,|blän- * dan- de|skön ut- i|
 G2 A2 |!f! !fermata!B2 z2 |!p! G2 A G | F2 E F | G2 ^G2 | A2 A z | c2 B A | G3/2 F/ G A | B2 A2 | %31
w: e- terns|bad.|Her- re min|Gud, hvad den|må- nen|ly- ser,|Se, hvil- ken|glans ut- öf- ver|land och|
w: må- nens|sken.|Högt opp i|Slot- tet var-|en- da|ru- ta|blix- trar, som|vo- re den en|ä- del-|
 G2 z2 |] %32
w: stad!|
w: sten.|
V:2
 z4 | z4 | z4 | z4 | z4 | z4 | z4 | z4 | G,2 A, G, | F,2 E, F, | G,2 ^G,2 | A,2 A, z | C2 B, A, | %13
w: ||||||||1.~Him- len är|klar och hvar|stjär- na|my- ser|Vän- ligt e-|
w: ||||||||2.~Tänk dig vid|tor- net en|prins med|lu- ta,|flad- dran- de|
 G,3/2 F,/ G, A, | B,2 A,2 | G,2 z2 | !>!=F,2 G, F, | E,2 D, E, | =F,2 ^F,2 | G,2 ^G,2 | %20
w: mot oss ner och|vin- kar|glad.|Der flam- mar|Si- ri- us.|der O-|ri- on,|
w: loc- kar och char-|man- ta|ben!|Och i et|fön- ster Ce-|ci- lia|Wa- sa,|
 A,=G, F, E, | ^D,2 B,, D, | E,2 C,2 |!f! !fermata!B,,2 z2 |!p! B,,2 C, B,, | A,,2 G,, A,, | %26
w: Der _ plas- kar|Sva- nen i|e- terns|bad.|Her- re min|Gud, hvad den|
w: blän- * dan- de|skön ut- i|må- nens|sken.|Högt opp i|Slot- tet var-|
 B,,2 E,2 | C,2 C, z | E,2 D, C, | B,,3/2 A,,/ B,, C, | D,2 D,2 | G,,2 z2 |] %32
w: må- nen|ly- ser,|Se, hvil- ken|glans ut- öf- ver|land och|stad!|
w: en- da|ru- ta|blix- trar, som|vo- re den en|ä- del-|sten.|
V:3
 G2 AG | F2 EF | G2 ^G2 | AECE | c2 BA | =G>F GA | B2 A2 | GDB,D | G2 AG | F2 EF | G2 ^G2 | AECE | %12
 c2 BA | [B,G]>[A,F] [B,G][CA] | B2 A2 | GDGB | d2 ed | c2 Bc | d2 ^d2 | e2 =d2 | cBAG | F2 BA | %22
 G2 A2 | !fermata!B2 z2 |!p!!p! G2 AG | F2 EF | (G2 ^G2 | A)E CE | c2 BA | [B,G]>[A,F][B,G][CA] | %30
 B2 [CFA]2 | [B,G]2 z2 |] %32
V:4
 B,4 | C4 | B,DB,D | C2 x2 | E2 DC | B,>A, B,C | D2 C2 | B,2 x2 | B,4 | C4 | B,DB,D | C2 x2 | %12
 E2 DC | x4 | E2 C2 | B,2 x2 | =F2 GF | E2 DE | =F2 ^F2 | G2 ^G2 | A=GFE | ^D2 (B,2 | B,2) E2 | %23
 ^D2 x2 | B,4 | C4 | (B,DB,D | C2) x2 | E2 DC | x4 | x4 | x4 |] %32
V:5
 (D,4 |!<(! D,4) | D,2 (E,2 | E,2) z2!<)! |!>(! E,4 | ((D,4 | (D,4))!>)! | D,2) z2 |!<(! (D,4!<)! | %9
 D,4) | D,2 E,2 | E,2 z2 | E,4 | ((D,4 | (D,4)) | D,2) z2 | !>!G,4 | ((C,4 | (C,4)) | C,2) E,2 | %20
 A,3 E, | (B,=A,)G,F, | (G,2 G,)E, | !fermata!F,2 z2 |!p!!<(! G,4 | D,4!<)! |!<(! D,2 (E,2!<)! | %27
 E,2) z2 | [A,,,A,,]2 [B,,,B,,][C,,C,] |!>(! (([D,,D,]4 | [D,,D,]2)) [D,,D,]2!>)! | [G,,G,]2 z2 |] %32
V:6
 G,,4 | A,,4 | B,,4 | A,,2 x2 | A,,2 B,,C, | x4 | D,2 D,,2 | G,,2 x2 | G,,4 | A,,4 | B,,4 | %11
 A,,2 x2 | A,,2 B,,C, | D,4 | D,2 D,,2 | G,,2 x2 | G,,4 | C,4 | (C,4 | C,2) B,,2 | A,,3 ^A,, | %21
 B,,4 | E,D, C,2 | B,,2 x2 | G,,4 | A,,4 | B,,4 | A,,2 x2 | x4 | x4 | x4 | x4 |] %32

